X: 1338
T: Charlie Kyle's Schottische
B: australian traditional tunes wiki
M:4/4
L:1/8
R: Schottische
Q: 1/4=100
K:D
V:1 
A2|:"D"d>c d>F "G"G2-G>A|"A7"B>c B>A "D"F2-F>D|A>F A>F "A7"(3GFE C>E|1"D"D>A, D>F "A7"A3B/c/:|2"D"D2d2d2 (3dcB||
|:"D"A2 (3FED A2d2|"Em"e2E>F G2-G>F|"A7"G>F E>F G>F E>A,|1"D"D>A, D>F "A7"A2A>B:|2"D"D2d2d2||
% abcbook-tune_id 6342d53a969616df9072b34d


% abcbook-boost 0
% abcbook-tablature 
% abcbook-transpose 
% abcbook-lastupdated 1665324360011
% abcbook-soundfonts 
% abcbook-repeats 1
% NFF Book 2007

